X: 17
T: Haran's Waltz
%R: waltz
B: "Twenty Four Country Dances for the Year 1799", Thomas Skillern, ed. p.9 #1
F: http://www.vwml.org/browse/browse-collections-dance-tune-books/browse-skillerns1799
Z: 2014 John Chambers <jc:trillian.mit.edu>
M: 3/8
L: 1/16
K: A
AB |\
c2c2c2 | cBcdec | d2d2d2 | B4BA |\
G2G2G2 | G2GABG | A2A2A2 | A4 :|
|: e2 |\
aeceae | geBege | aeceae | geBege |\
agfedc | BAGFED | CEAcBG | A4 :|
e2 |\
e4c2 | c3de2 | e2d2B2 | B4d2 |\
c3de2 | e2d2c2 | c2B2B2 | B4e2 |
e4c2 | c3de2 | e2d2B2 | B4d2 |\
c3dc2 | B2A2B2 | A2A2A2 | A4 |]
%%begintext align
%% Hands across same back again lead down the
%% middle up again Allemande Swing Corners.
%%endtext

%%sep 1 1 500
%%sep 1 1 500
